public/assets/icons/n-logo-white.svg

<svg fill="none" height="31" viewBox="0 0 30 31" width="30" xmlns="http://www.w3.org/2000/svg"><path clip-rule="evenodd" d="m19.6231 27.3776 2.2502-3.9271-11.4989-20.07294-2.25018 3.92709zm6.8768-11.9991-3.724 6.5009-2.2502-3.9271 1.4746-2.573-4.0623-7.08996 3.3749-1.96354zm-14.4379 7.0907-3.37493 1.9636-5.18707-9.0535 3.72409-6.5033c.99535 1.7371 1.41973 2.4774 1.65417 2.8863l.00031.0006c.25892.4516.28603.4989.59572 1.0402l-1.47467 2.5762z" fill="#fff" fill-rule="evenodd"/></svg>

<svg width="30" height="31" viewBox="0 0 30 31" fill="none" xmlns="http://www.w3.org/2000/svg">
<path fill-rule="evenodd" clip-rule="evenodd" d="M19.6231 27.3776L21.8733 23.4505L10.3744 3.37756L8.12422 7.30465L19.6231 27.3776ZM26.4999 15.3785L22.7759 21.8794L20.5257 17.9523L22.0003 15.3793L17.938 8.28934L21.3129 6.3258L26.4999 15.3785ZM12.062 22.4692L8.68707 24.4328L3.5 15.3793L7.22409 8.876C8.21944 10.6131 8.64382 11.3534 8.87826 11.7623L8.87857 11.7629C9.13749 12.2145 9.1646 12.2618 9.47429 12.8031L7.99962 15.3793L12.062 22.4692Z" fill="white"/>
</svg>
